X: 1
T: Doctor Vincent's Delight
T: Vera's Valedictory
C: Charles Bolton
R: jig
Z: 2015 John Chambers <jc:trillian.mit.edu>
B: Barnes v.1 p.28
M: 6/8
L: 1/8
K: D
|:\
"D"D3 d3 | "G"Bcd "D"AFE | D2d "G"Bcd | "A7"e3 A3 |\
"D"dfd "A"ecA | "G"BdB "A7"AFE | "D"D2d "A7"edc | "D"d6 :|
|:\
"D"f3 a2f | "A7"e2g "D"fed | "D"f3 a2f | "A7"e3- ede |\
"D"f3 a2f | "A7"e2g "D"fed | "D"f2a "E"ba^g | "A"a3- a2b |
"C"=c'2c'- c'ba | "G"b2b- bag | "D"a2a- agf | "Em"efg "A"cBA |\
"G"B2d "A"cde | "Bm"d2f "A/c#"efg | "D"fga "A7"gfe | "D"d6 :|

%%sep 1 1 500

